coreui/free/cil-weightlifitng.svg

<svg xmlns="http://www.w3.org/2000/svg" viewBox="0 0 512 512">
  <circle cx="256" cy="156" r="36" fill="var(--ci-primary-color, currentColor)" class="ci-primary"/>
  <path fill="var(--ci-primary-color, currentColor)" d="M400,16V72H112V16H16V160h96V104h25.278l7.524,90.289,79.2,39.6V336H144.864l-7.413,133.426H169.5L175.136,368H336.864L342.5,469.426h32.05L367.136,336H288V233.889l79.2-39.6L374.722,104H400v56h96V16ZM80,72v56H48V48H80ZM336.8,173.71l-80.8,40.4-80.8-40.4L169.389,104H342.611ZM464,128H432V48h32Z" class="ci-primary"/>
</svg>

<svg viewBox="0 0 512 512" xmlns="http://www.w3.org/2000/svg"><g><path d="M256 120a36 36 0 1 0 0 72 36 36 0 1 0 0-72Z"/><path d="M400 16v56H112V16H16v144h96v-56h25.27l7.52 90.28 79.2 39.6v102.11h-79.138l-7.42 133.42h32.04l5.63-101.43h161.72l5.63 101.42h32.05l-7.42-133.43h-79.14V233.85l79.2-39.6 7.52-90.29h25.27v56h96v-144ZM80 72v56H48V48h32Zm256.8 101.71l-80.8 40.4 -80.8-40.4 -5.82-69.71H342.6ZM464 128h-32V48h32Z"/></g></svg>
